src/img/logo_itau_rgb.svg

<svg width="80" height="80" viewBox="0 0 80 80" fill="none" xmlns="http://www.w3.org/2000/svg">
<path d="M13.3373 0H66.6627C74.0253 0 80 5.97296 80 13.3333V66.6667C80 74.027 74.0253 80 66.6627 80H13.3373C5.95119 80 0 74.027 0 66.6667V13.3333C0 5.97296 5.95119 0 13.3373 0Z" fill="white"/>
<rect x="7.12723" y="40.4623" width="6.2108" height="25.7825" fill="#EC7000"/>
<path fill-rule="evenodd" clip-rule="evenodd" d="M33.0289 48.1927C34.5816 47.3287 37.4282 46.3738 41.2394 46.3738C48.1089 46.3738 50.485 50.1707 50.485 54.8315V66.2677H45.427L44.7447 64.2669H44.6741C43.3096 65.813 41.0747 66.7451 38.4163 66.7451C33.9699 66.7451 31.5468 63.7667 31.5468 60.8338C31.5468 55.8319 36.5342 53.3082 44.6036 53.331V53.1263C44.6036 52.2169 43.8507 50.4435 40.2042 50.4435C38.0163 50.4435 35.6167 51.1711 34.2052 51.9895L33.0289 48.1927ZM44.6977 60.1062C44.7682 59.7879 44.7918 59.4469 44.7918 59.1286H44.7682V57.0824C44.3448 57.0824 43.9448 57.0824 43.5449 57.1051C42.8862 57.1278 42.2745 57.1733 41.7099 57.2643C39.3103 57.628 37.7105 58.5602 37.7105 60.3791C37.7105 61.9933 38.8868 62.8573 40.6042 62.8573C42.5568 62.8573 44.0389 61.6523 44.58 60.4018C44.5918 60.3904 44.5977 60.3734 44.6036 60.3563C44.6094 60.3393 44.6153 60.3222 44.6271 60.3109C44.6506 60.2881 44.6977 60.1517 44.6977 60.1062Z" fill="#EC7000"/>
<path d="M67.6593 46.9419V58.2644C67.6593 58.7191 67.6122 59.1284 67.4475 59.4921C66.9535 60.6517 65.7302 61.9703 63.7069 61.9703C61.1662 61.9703 60.0604 60.1742 60.0604 57.1503V46.9192H53.9908V58.2189C53.9908 59.7422 54.179 61.0154 54.5554 62.084C54.9318 63.1526 55.4494 64.0166 56.1081 64.6987C56.7668 65.3807 57.5432 65.9037 58.4607 66.222C59.3782 66.5403 60.3898 66.6994 61.472 66.6994C62.4366 66.6994 63.2835 66.5857 64.0128 66.3584C64.7421 66.131 65.4008 65.8582 65.9184 65.5399C66.4595 65.2216 66.9064 64.8805 67.2593 64.5168C67.6122 64.153 67.8945 63.812 68.1063 63.5164L68.8826 66.2674H73.7995V46.9419H67.6593Z" fill="#EC7000"/>
<path d="M19.1957 40.4624V46.9194H16.3491V51.3302H19.1957V59.1968C19.1957 61.7887 19.7368 63.7439 20.8896 64.9262C21.9012 65.9721 23.6421 66.7223 25.783 66.7223C27.618 66.7223 28.3237 66.4495 29.1471 66.1539V61.675C28.9825 61.7432 28.4884 61.8341 27.8767 61.8341C25.7124 61.8341 25.2183 60.5382 25.2183 58.1737V51.3302H29.0766V46.9194H25.2183V40.4624H19.1957V40.4624Z" fill="#EC7000"/>
<path fill-rule="evenodd" clip-rule="evenodd" d="M65.3533 40.4624L61.6127 45.6689H65.9414L71.2347 40.4624H65.3533Z" fill="#EC7000"/>
</svg>

<svg width="80" height="80" fill="none" xmlns="http://www.w3.org/2000/svg"><path d="M13.337 0h53.326C74.025 0 80 5.973 80 13.333v53.334C80 74.027 74.025 80 66.663 80H13.337C5.951 80 0 74.027 0 66.667V13.333C0 5.973 5.951 0 13.337 0z" fill="#fff"/><path fill="#EC7000" d="M7.127 40.462h6.211v25.782H7.127z"/><path fill-rule="evenodd" clip-rule="evenodd" d="M33.029 48.193c1.553-.864 4.4-1.82 8.21-1.82 6.87 0 9.246 3.798 9.246 8.459v11.436h-5.058l-.682-2.001h-.07c-1.365 1.546-3.6 2.478-6.259 2.478-4.446 0-6.87-2.978-6.87-5.911 0-5.002 4.988-7.526 13.058-7.503v-.205c0-.91-.753-2.682-4.4-2.682-2.188 0-4.587.727-5.999 1.545l-1.176-3.796zm11.669 11.913c.07-.318.094-.66.094-.977h-.024v-2.047c-.423 0-.823 0-1.223.023a14.84 14.84 0 00-1.835.16c-2.4.363-4 1.295-4 3.114 0 1.614 1.177 2.478 2.894 2.478 1.953 0 3.435-1.205 3.976-2.455a.113.113 0 00.024-.046.111.111 0 01.023-.045.532.532 0 00.07-.205z" fill="#EC7000"/><path d="M67.66 46.942v11.322c0 .455-.048.864-.212 1.228-.494 1.16-1.718 2.478-3.741 2.478-2.54 0-3.647-1.796-3.647-4.82V46.92h-6.07v11.299c0 1.523.189 2.796.565 3.865.377 1.069.894 1.933 1.553 2.615a5.955 5.955 0 002.353 1.523c.917.318 1.929.477 3.011.477.965 0 1.811-.113 2.54-.34.73-.228 1.389-.5 1.906-.82a6.32 6.32 0 001.341-1.022c.353-.364.635-.705.847-1l.777 2.75h4.916V46.942h-6.14zm-48.464-6.48v6.457h-2.847v4.411h2.847v7.867c0 2.592.54 4.547 1.694 5.73 1.011 1.045 2.752 1.795 4.893 1.795 1.835 0 2.54-.272 3.364-.568v-4.479c-.164.068-.659.16-1.27.16-2.165 0-2.659-1.297-2.659-3.661V51.33h3.859v-4.41h-3.859v-6.458h-6.022z" fill="#EC7000"/><path fill-rule="evenodd" clip-rule="evenodd" d="M65.353 40.462l-3.74 5.207h4.328l5.294-5.207h-5.882z" fill="#EC7000"/></svg>
